MonoIcons/scalable/status/network-cellular-connected-symbolic.svg

<?xml version="1.0" encoding="UTF-8"?>
<svg height="16px" viewBox="0 0 16 16" width="16px" xmlns="http://www.w3.org/2000/svg">
    <path d="m 1.957031 2.023438 c -0.125 0.003906 -0.25 0.054687 -0.34375 0.152343 l -0.238281 0.25 c -0.933594 0.96875 -1.3984375 2.273438 -1.3984375 3.574219 s 0.4648435 2.605469 1.3984375 3.574219 l 0.238281 0.25 c 0.1875 0.199219 0.503907 0.203125 0.699219 0.015625 c 0.199219 -0.191406 0.207031 -0.503906 0.015625 -0.703125 l -0.234375 -0.25 c -1.46875 -1.53125 -1.46875 -4.238281 0 -5.773438 l 0.234375 -0.25 c 0.191406 -0.199219 0.183594 -0.511719 -0.015625 -0.703125 c -0.097656 -0.09375 -0.226562 -0.140625 -0.355469 -0.136718 z m 12.039063 0 c -0.128906 -0.003907 -0.257813 0.042968 -0.355469 0.136718 c -0.199219 0.191406 -0.203125 0.503906 -0.015625 0.703125 l 0.238281 0.25 c 1.46875 1.535157 1.46875 4.242188 0 5.773438 l -0.238281 0.25 c -0.1875 0.199219 -0.183594 0.511719 0.015625 0.703125 c 0.199219 0.1875 0.511719 0.183594 0.703125 -0.015625 l 0.238281 -0.25 c 0.929688 -0.96875 1.394531 -2.273438 1.394531 -3.574219 s -0.464843 -2.605469 -1.394531 -3.574219 l -0.238281 -0.25 c -0.09375 -0.097656 -0.21875 -0.148437 -0.347656 -0.152343 z m -10.539063 1.492187 c -0.113281 0.003906 -0.222656 0.046875 -0.3125 0.128906 l -0.273437 0.25 c -0.613282 0.554688 -0.90625 1.34375 -0.902344 2.125 c 0.007812 0.777344 0.3125 1.550781 0.902344 2.085938 l 0.273437 0.25 c 0.203125 0.1875 0.519531 0.171875 0.703125 -0.03125 s 0.171875 -0.519531 -0.035156 -0.703125 l -0.269531 -0.246094 c -0.699219 -0.636719 -0.746094 -2.070312 0 -2.75 l 0.269531 -0.246094 c 0.207031 -0.183594 0.21875 -0.496094 0.035156 -0.703125 c -0.105468 -0.113281 -0.25 -0.167969 -0.390625 -0.160156 z m 8.992188 0 c -0.125 0.003906 -0.25 0.058594 -0.34375 0.160156 c -0.183594 0.207031 -0.167969 0.519531 0.035156 0.703125 l 0.273437 0.246094 c 0.742188 0.679688 0.695313 2.113281 0 2.75 l -0.273437 0.246094 c -0.203125 0.183594 -0.21875 0.5 -0.035156 0.703125 c 0.1875 0.203125 0.5 0.21875 0.707031 0.03125 l 0.269531 -0.25 c 0.589844 -0.535157 0.894531 -1.308594 0.902344 -2.085938 c 0.007813 -0.78125 -0.289063 -1.570312 -0.902344 -2.125 l -0.269531 -0.25 c -0.101562 -0.09375 -0.234375 -0.132812 -0.363281 -0.128906 z m -7.699219 1.484375 c -0.289062 0 -0.550781 0.164062 -0.675781 0.425781 c -0.125 0.257813 -0.089844 0.566407 0.089843 0.792969 l 2.835938 3.542969 v 6.238281 h 2 v -6.238281 l 2.835938 -3.542969 c 0.179687 -0.226562 0.214843 -0.535156 0.089843 -0.792969 c -0.125 -0.261719 -0.386719 -0.425781 -0.675781 -0.425781 z m 1.5625 1.5 h 3.375 l -1.6875 2.113281 z m 0 0" fill="#2e3436"/>
</svg>

<svg width="16" height="16" viewBox="0 0 16 16" fill="none" xmlns="http://www.w3.org/2000/svg">
<g clip-path="url(#clip0_231_1177)">
<path d="M1.95703 2.02342C1.83203 2.02733 1.70703 2.07811 1.61328 2.17576L1.375 2.42576C0.441406 3.39451 -0.0234375 4.6992 -0.0234375 5.99998C-0.0234375 7.30076 0.441406 8.60545 1.375 9.5742L1.61328 9.8242C1.80078 10.0234 2.11719 10.0273 2.3125 9.83982C2.51172 9.64842 2.51953 9.33592 2.32812 9.1367L2.09375 8.8867C0.625 7.35545 0.625 4.64842 2.09375 3.11326L2.32812 2.86326C2.51953 2.66404 2.51172 2.35154 2.3125 2.16014C2.21484 2.06639 2.08594 2.01951 1.95703 2.02342V2.02342ZM13.9961 2.02342C13.8672 2.01951 13.7383 2.06639 13.6406 2.16014C13.4414 2.35154 13.4375 2.66404 13.625 2.86326L13.8633 3.11326C15.332 4.64842 15.332 7.35545 13.8633 8.8867L13.625 9.1367C13.4375 9.33592 13.4414 9.64842 13.6406 9.83982C13.8398 10.0273 14.1523 10.0234 14.3437 9.8242L14.582 9.5742C15.5117 8.60545 15.9766 7.30076 15.9766 5.99998C15.9766 4.6992 15.5117 3.39451 14.582 2.42576L14.3437 2.17576C14.25 2.07811 14.125 2.02733 13.9961 2.02342ZM3.45703 3.51561C3.34375 3.51951 3.23437 3.56248 3.14453 3.64451L2.87109 3.89451C2.25781 4.4492 1.96484 5.23826 1.96875 6.01951C1.97656 6.79686 2.28125 7.57029 2.87109 8.10545L3.14453 8.35545C3.34766 8.54295 3.66406 8.52732 3.84766 8.3242C4.03125 8.12107 4.01953 7.80467 3.8125 7.62107L3.54297 7.37498C2.84375 6.73826 2.79687 5.30467 3.54297 4.62498L3.8125 4.37889C4.01953 4.19529 4.03125 3.88279 3.84766 3.67576C3.74219 3.56248 3.59766 3.50779 3.45703 3.51561V3.51561ZM12.4492 3.51561C12.3242 3.51951 12.1992 3.5742 12.1055 3.67576C11.9219 3.88279 11.9375 4.19529 12.1406 4.37889L12.4141 4.62498C13.1562 5.30467 13.1094 6.73826 12.4141 7.37498L12.1406 7.62107C11.9375 7.80467 11.9219 8.12107 12.1055 8.3242C12.293 8.52732 12.6055 8.54295 12.8125 8.35545L13.082 8.10545C13.6719 7.57029 13.9766 6.79686 13.9844 6.01951C13.9922 5.23826 13.6953 4.4492 13.082 3.89451L12.8125 3.64451C12.7109 3.55076 12.5781 3.5117 12.4492 3.51561V3.51561ZM4.75 4.99998C4.46094 4.99998 4.19922 5.16404 4.07422 5.42576C3.94922 5.68357 3.98437 5.99217 4.16406 6.21873L7 9.7617V16H9V9.7617L11.8359 6.21873C12.0156 5.99217 12.0508 5.68357 11.9258 5.42576C11.8008 5.16404 11.5391 4.99998 11.25 4.99998H4.75ZM6.3125 6.49998H9.6875L8 8.61326L6.3125 6.49998Z" fill="#2E3436"/>
</g>
<defs>
<clipPath id="clip0_231_1177">
<rect width="16" height="16" fill="white"/>
</clipPath>
</defs>
</svg>
